X: 40896
T: Trigonometry
R: reel
M: 4/4
K: Eminor
F2|:GBde BAFG-|G ~F3 FGEF|GBde Bdeg|fedf eedB|
GBde BAFG-|G ~F3 FGEF|GBde Bd e2-|1 eg f/e/d e2 z2:|2 eg f/e/d e2 ef||
|:gfed B/c/deg|fdB/c/d e z e2-|~edAG AB z A-|AGAB defa|
gfed B/c/deg|fdB/c/d e z e2-|edAG AB z A-|AGFG FE E2:|

